!!! OTL: Literature143
!!! Chapter: 5
!!! Section: IV
!!! Page: 379
!!! Mode: 
!!! Encoder: DJB
**kern
*staff1
*I"Piano
=1-
*clefC4
*k[f#c#]
*b:
*M3/8
8r
16f#\LL
16e\J
8f#\J
=2
16e\LL
16d\J
8e\
16d\L
16c#\JJ
=3
8d\L
8B\
16d\L
16c#\JJ
=4
8d\L
16c#\L
16e\
16d\
16c#\JJ
=5
[4.B\
=6
16B\LL]
16f#\
16f#\
16e\J
8f#\J
=7
16e\LL
16d\J
8e\
16d\L
16c#\JJ
=8
8d\L
8B\
16d\L
16c#\JJ
=9
8d\L
16c#\L
16e\
16d\
16c#\JJ
=10
4B\
16c#\LL
16d\JJ
=11
8e\L
8e\
8f#\J
=12
!!linebreak:original
8g\L
16f#\L
16a\
16g\
16f#\JJ
=13
8e\L
8e\
8f#\J
=14
8d\L
16c#\L
16d\
16B\
16d\JJ
=15
8e\L
16e\L
16f#\
16e\
16f#\JJ
=16
8g\L
16f#\L
16a\
16g\
16f#\JJ
=17
8e\L
8e\
8f#\J
=18
8d\L
16c#\L
16d\
16B\
16d\JJ
=19
8e\L
16e\L
16f#\
16e\
16f#\JJ
=20
[8g\L
16g\L]
16f#\
24a\
24g\
24f#\JJ
=21
!!linebreak:original
24g\LL
24f#\
24e\J
8e\
16.d\L
32c#\JJk
=22
8B\
4r
==
*-
